X: 755
T: Xiu qilu
%%abc-version 2.0
%%abcx-abcm2ps-target-version 5.9.1 (29 Sep 2008)
%%abc-creator hum2abc beta
%%abcx-conversion-date 2013/10/02 07:52:30
%%abc-edited-by Helmut Schaffrath
%%humdrum-veritas 2586702695
%%humdrum-veritas-data 1447961076
%%continueall 1
%%barnumbers 0
L: 1/8
M: 2/4
K: Bb
b2f2 [I:setbarnb 1]| 
e2d c | 
f g f c | 
B4 | 
c2f f | 
e2d c | 
f g f c | 
B4 | 
c d c B | 
A4 | 
c d c B | 
A4 | 
F2B2 | 
A2G F | 
c d c G | 
F4 | 
f g f c | 
f g f c | 
f g f c | 
B2A G | 
F2B B | 
A2G F | 
c d c G | 
F4 |]  



